t107rv15a8b8>ccccdc<bbbbb+ba8.l32&aaba8.&aab16a4al16ba.g.l8ed&d32e2.&e32abl4>ccccdc<bbbbb+ba8.l32&aaba8.&aab16a4al16ba.l8ge&e32g&g32a1&a4&a16.t122ab>c2.dcc-2.c<ba2&abage2.abb+2l4b>cd2cde1&e2<ab>c2dcc-2c<ba.b8age2ab>c2dc<b2a.g8bl2.arl8ab>c2.dcc-2.c<ba2&abage2.abb+2l4b>cd2cde1&e2<ab>c2dcc-2c<ba.b8age2ab>c2dc<b2a.g8bl2.arl8>cded2cde2&ed4c4dc4.c-4cd2&dc4c-4c2<a4b>c2&cr<b4ag1r2.abb+b4.a4b+b2.&bb+bb+r4bag4e2&ea4b4>c2d4.c<b2a4.gba2.&ar2.ab>c2.dcc-2.cc-c2&c<bab+e2.abb+2l4b>cd2cde1&e2<ab>c2dcc-2c<ba.b8age2ab>c2dc<b2a.g8ba2.