MML@t143rv15l16>cdcdc8g8e8.gc8g8ag+ag+a8>d8<g4r4fgafd8g8efgec8e8def+dc8a8l32agagagagagagagagl16cdcdc8g8e8.gc8g8ag+ag+a8>d8<g4r4fgafd8g8efgec8e8dfab+gb>dc-c8<c8b+4gecegeb+gafcfa4af+df+af+>d<abgdgb4bg+eg+bg+>ec-cdc<baragafcabgdbb+8c8b+4<cdcdc8g8d+8.gc8g8g+gg+gg+8>d8<g4r4fgg+fd8g8d+fgd+c8d+8dd+fdc8g+8l32g+gg+gg+gg+gg+gg+gg+gg+gl16cdcdc8g8d+8.gc8g8g+gg+gg+8>d8<g4r4fgg+fd8g8d+fgd+c8d+8dfg+b+gb>dc-c8<c8b+4gd+cd+gd+b+gg+fcfg+4g+fc+fg+fn61g+bgdgb4b+gd+gb+g>d+ccdc<a+g+rg+gg+fcg+bgdbb+8c8>c4,rv15g8r.gga8r.ge8g8abgaaf+l8>dc<bagl4r.gga8r.ge8g8abgafge8c8>cl16ec<g>cecgefc<a>cf4f+d<a>df+daf+gdc-dg4g+ec-eg+ebg+abagere8fc<a>fgdc-gc8r8l4c<<g8r.ggg+8r.gd+8g8g+bgg+g+fl8>dc<bg+gl4r.ggg+8r.gd+8g8g+bgg+fgd+8c8>cl16d+c<g>cd+cgd+fcn44cf4fc+n44c+fc+g+fgdc-df4gd+cd+gd+b+gg+a+g+gd+rd+8fcn44fgdc-fc8r8c4,rv15e8r.cef8r.ec8e8dfcef+dl8bagfel4r.cef8r.ec8e8dfcedc-cc<c8rl8cfrf4dr4dgrg4er4eara4<frgrcb+c4>d+l4r.cd+f8r.d+c8d+8dfcd+fdl8bg+gfd+l4r.cd+f8r.d+c8d+8dfcd+dc-ccc8rl8cfrf4c+r4c+grg4d+r4d+g+rg+4<frgrcb+c4;