MML@r1l16c+n46g+n46f+n46fn46d+n46fn46d+n46c+n46d+n46fn46f+n46fn46d+n46cn46d+n46c+n46c+n46g+n46f+n46fn46d+n46fn46d+n46c+n46d+n46fn46f+n46fn46d+n46cn46d+n46c+n46r4rcn46cc+8d+rf4.&fr8cn46cc+8d+rf4.&fr8d+c+d+f8f+rg+8a+ra2f8.d+4&d+r4rcn46cc+8d+rf4.&fr8cn46cc+8d+rf4.&fr8d+c+d+f8f+rg+8a+ra2f8.d+4&d+g+8.f4&fg+8.f4&fg+8.f4&ff>fn51d+n49c+<cb+g+8f>f4&f<g+8f>f4&f<g+8f>f4&ff8f+8d+f8.<c+n46g+n46f+n46fn46d+n46fn46d+n46c+n46d+n46fn46f+n46fn46d+n46cn46d+n46c+n46c+n46g+n46f+n46fn46d+n46fn46d+n46c+n46d+n46fn46f+n46fn46d+n46cn46d+n46c+n46r4rcn46cc+8d+rf4.&fr8cn46cc+8d+rf4.&fr8d+c+d+f8f+rg+8a+ra2f8.d+4&d+r4rcn46cc+8d+rf4.&fr8cn46cc+8d+rf4.&fr8d+c+d+f8f+rg+8a+ra2f8.d+4&d+g+8.f4&fg+8.f4&fg+8.f4&ff>fn51d+n49c+<cb+g+8f>f4&f<g+8f>f4&f<g+8f>f4&ff8f+8d+f8.<c+n46g+n46f+n46fn46d+n46fn46d+n46c+n46d+n46fn46f+n46fn46d+n46cn46d+n46c+n46v7c+n46g+n46f+n46fn46v6d+n46fn46d+n46c+n46v5d+n46fn46f+n46fn46v4d+n46cn46d+n46c+n46r4rv3cn46cv2c+8d+rf4.&v1f,t126r1l16a+f>f<fn63fn61fb+fn61fb+fa+fb+fn61fn63fn61fb+fg+fb+fa+fa+f>f<fn63fn61fb+fn61fb+fa+fb+fn61fn63fn61fb+fg+fb+fa+f>d+8g+f2&fl8d+c+d+.g+.f4.d+c+d+l16g+f2&fd+8.rf+8.g+4&g+f8.f+4&f+d+8g+f2&fl8d+c+d+.g+.f4.d+c+d+g+16f2&f16d+ff+.g+4&g+16fgab+l8.cn58a+8cn58a+8cn58a+8l16c+n73cb+n58a+n56g+c8n58a+4&a+c8n58a+4&a+c8n58a+4&a+>c+8d+8cc+8.<<a+f>f<fn63fn61fb+fn61fb+fa+fb+fn61fn63fn61fb+fg+fb+fa+fa+f>f<fn63fn61fb+fn61fb+fa+fb+fn61fn63fn61fb+fg+fb+fa+f>d+8g+f2&fl8d+c+d+.g+.f4.d+c+d+l16g+f2&fd+8.rf+8.g+4&g+f8.f+4&f+d+8g+f2&fl8d+c+d+.g+.f4.d+c+d+g+16f2&f16d+ff+.g+4&g+16fgab+l8.cn58a+8cn58a+8cn58a+8l16c+n73cb+n58a+n56g+c8n58a+4&a+c8n58a+4&a+c8n58a+4&a+>c+8d+8cc+8.<<a+f>f<fn63fn61fb+fn61fb+fa+fv7b+fn61fn63fn61fv6b+fg+fb+fa+fv5a+f>f<fn63fn61fv4b+fn61fb+fa+fv3b+fn61fn63fn61fv2b+fg+fb+fa+fv1>d+8g+f2&fd+8c+8,l1ro1a+>fa+>f<<a+8l16n34a+ra+n34ra+a+n34ra+rn34rg+8n32g+rg+n32rg+rn32rg+g+n32rf+8n30f+rf+n30rf+f+n30rf+rn30rff>f<frf>fr<fr>fr<ff>frn22ra+<a+ra+n34ra+a+n34ra+rn34rg+rn32g+rg+n32rg+rn32rg+g+n32rf+8n30f+rf+n30rf+f+n30rf+rn30rff>f<frf>fr<f>f<g>g<a>acb+<a+8ra+8ra+n34g+8rg+8rg+n32f+8rf+8rf+n30g+8rg+8rg+n32a+8ra+8ra+n34g+8rg+8rg+g+f+8rf+8rf+n30g+8>g+8<g+g+>g+8<a+1>f1a+1>f1<<a+8n34a+ra+n34ra+a+n34ra+rn34rg+8n32g+rg+n32rg+rn32rg+g+n32rf+8n30f+rf+n30rf+f+n30rf+rn30rff>f<frf>fr<fr>fr<ff>frn22ra+<a+ra+n34ra+a+n34ra+rn34rg+rn32g+rg+n32rg+rn32rg+g+n32rf+8n30f+rf+n30rf+f+n30rf+rn30rff>f<frf>fr<f>f<g>g<a>acb+<a+8ra+8ra+n34g+8rg+8rg+n32f+8rf+8rf+n30g+8rg+8rg+n32a+8ra+8ra+n34g+8rg+8rg+g+f+8rf+8rf+n30g+8>g+8<g+g+>g+8<a+1>f1v6a+1v4>f1v2<<a+8n34a+ra+n34rv1a+a+n34ra+r>a+;