MML@rv15<ga+8a8a+gab+8a+8>c2rc8<a+8>cd<a+a8a+8g2ra+8a8a+gab+8a+8>c2rc8<a+8>cd<a+a8a+8g2ga+8a8a+gab+8a+8>c2rc8<a+8>cd<a+a8a+8g2ra+8a8a+gab+8a+8>c2rc8<a+8>cd<a+a8a+8g2l16o6gdgaa+b+a+aa+gaa+b+a+agaf+gaa+>cdd+dc<a+aa+gaa+agf+gadf+ab+a+agaa+b+aa+agagf+ef+g8d8g8a8gdgaa+b+a+aa+aga>dcn82c<a+aa+>cdd+dcdc<a+aa+agf+gf+ab+a+agf+gdf+ab+a+aga+>d<a+agf+ef+g2l4<<cd+8d8d+cdf8d+8f2rf8d+8fgd+d8d+8c2rd+8d8d+cdf8d+8f2rf8d+8fgd+g+8f8g2,t128r2v15l8<gf+g4r2aga2r4agl4aa+ggr2.l8gf+g4r2aga2r4agl4aa+ggr2>g8l16gaa+4.g8a8a+8a8aa+b+2.a8aa+b+4.a+8>c8d8<a+8a+ag2.g8gaa+4.g8a8a+8a8aa+b+2.a8aa+b+4.a+8>c8d8<a+8a+ag2.r4l8<gf+g4r2aga2r4agl4aa+ggr2.l8gf+g4r2aga2r4agl4aa+ggr2>>g8l16gfd+4.d8d+8f8f8fd+d2.f8fd+d4.c8d8d+8d+8d+dc2.g8gfd+4.d8d+8f8f8fd+d2.f8fd+d4.c8d8d+8d+8d+dd+dcdd2,rv15o2ggggggggddddgggdggggggggddddgggg8a+8ggggggggddddgggdggggggggddddgggg8a+8ggggggggddddgggdggggggggddddgggg8a+8>cccccccc<a+a+a+a+>cccccccccccc<a+a+a+a+g+g+g2,
l1.rrrrrr2.v15>g8l16gaa+4.g8a8a+8a8aa+b+2.a8aa+b+4.a+8>c8d8<a+8a+ag2.g8gaa+4.g8a8a+8a8aa+b+2.a8aa+b+4.a+8>c8d8<a+8a+ag2.l1.rrrrrr2>g8l16gfd+4.d8d+8f8f8fd+d2.f8fd+d4.c8d8d+8d+8d+dc2.g8gfd+4.d8d+8f8f8fd+d2.f8fd+d4.c8d8d+8d+8d+dd+dcdd2,l1.rrrrrr2r2v15l8<gf+g4r2aga2r4agl4aa+ggr2.l8gf+g4r2aga2r4agl4aa+ggr2ga+8a8a+gab+8a+8>c2rc8<a+8>cd<a+a8a+8g2ra+8a8a+gab+8a+8>c2rc8<a+8>cd<a+l8aa+g2r4b+b>c4r2dcd2r4dcl4dd+ccr2.l8cc-c4r2dcd2r4dcd4d+4c4d+dd2;