MML@t93o6e4<g4l8>ef+g2&grd4<f+4>def+2&f+r4<<g.l16r>c8.rf+8c2.<c-8.rb8.r>d8.rb2&b8r4<e8.ra8.r>d8<a2.r8c8.rg8.r>c8.rc8.rg8.rl8b+e4.c-ef+l4gf+ed.e8d<b2l8&br>e4.c-ef+l4gf+ga.g8ab2.e.c-8e8f+8gf+ed.e8d<b.r8g8a8bbbba>d<gl8rgrdr4r8e.l16rb+8.re8.r>c8.rl8g<<a>eab>ce<<f>cfgab+<g>dgab>d<<eb>ef+gbc-f+b>c+del32f+a>c+f+2&f+l8ro3a>eabb+a>f+32b32>e16&ed+4r4o3c-f+b>c+d<f+<g>dgabd<a>eab>c+<e<g->c+f+g+abl4>>g+ec+c-2f+<a.f+8a<<c->d+b>f+2.,l4r8>eb>d8e2&e8r<dal8>cd2&dr<<c.l16r>d8.re8.rg2.r8<f+8.r>c+8.rl8.f+r2r<<ar16>br16>cr16c2.<<fr16>fr16ar16>fr16fr16ar16l8<<eb>ef+gacg4f+ec<da>def+c<<g>dgab>d<eb>ef+gacg4f+ec<da>def+c<<g>dgab>d<eb>ef+gacg4f+ec<da>derc<<g>dgabf+cgrgrgd2.<a>ea4c-4cg>crg.l16r>e8.r<g8.r>e8.rl4a.r8>eedcc-.r8g<e32b32>g16&g2r8c-2f+<<f+2&f+8r8>a2>eo3b.r8b8a8>b2>f+f+edc+2aa2&a8r8<<c+2.<g2>ba2>er8<c-f+>d+,l4e2dc2rd2cc-2r>bbbba.>d8<f+2&f+8r2r4r8>eeeel4.dg8c1r2<<grb2.f+g8a4g2&g8r8grb2.ag8a4g2.grb2.f+l8rf+4d2edl4dcc-c2.e.r8f+e.r1r2rr8>a2rl2gr1f+r1er1<f+l4f+agf+e2bl2a&a8r8c+.<gg4f+.>b1;