MML@t113v15o2a1l16ar8a2&a>ecd<bar8ar8ar8ar8a8g8ar8ar8ar8al8ragf4g.e>e16<bfgl4ab>ce<fl8g.e&e32r32bfgl16ar8ar8ar8ar8a8g8ar8ar8ar8ar8a8g8ar8ar8ar8ar8a8g8fr8fr8er8dr8e8e8ar8ar8ar8ar8a8g8fr8fr8er8dl8reef4.f+g.d.ga.g4&g16e.g4&g16f4.f+g.b.gd.&d32rr32>d4c<baf4.ae.>e.dc.<g.>ed.<a.f+f4.&f32l16r.>f8ef8edc<f+4.&f+32r.>d+4l8f+<f+g.>g.f+f.<f4&f16e.>e.d+d.<d4l16&da1ar8a2&a>ecd<bar8ar8ar8ar8a8g8ar8ar8ar8al8ragf4g.e>e16<bfgl4ab>ce<fl8g.e&e32r32bfgl16ar8ar8ar8ar8a8g8ar8ar8ar8ar8a8g8ar8ar8ar8ar8a8g8fr8fr8er8dr8e8e8ar8ar8ar8ar8a8g8fr8fr8er8dl8reef4.f+g.d.ga.g4&g16e.g4&g16f4.f+g.b.gd.&d32rr32>d4c<baf4.ae.>e.dc.<g.>ed.<a.f+f4.&f32l16r.>f8ef8edc<f+4.&f+32r.>d+4l8f+<f+g.>g.f+f.<f4&f16e.>e.d+d.<d4&d16,l16rv15b+a>fc<a>f+c<a>fc<a>ecc-dec<a>fc<a>f+c<a>fc<a>ecc-dec<a>fc<a>f+c<a>fc<a>ecc-dec<a>fc<a>f+c<a>fc<a>ecc-d<f8>e8dc8c-8cd8<b8g8a1fc>e<c>dc<cbe>cd<ebegea1r1>e<abb+baecc-8c<a8&a32r32b>cd8ec8edefc-cfadg+daeb+baec<ab8b+a8b+b>cd8ec8edefdgeaebe<a2b2>e8.d8.ere8gededcl2<abb4g4f+abl8.abb+8b>cd8<f1>d+2l16r<aaab+a>cfl8.gbg8bgb8>eel16er8fedc<bag+rb+a>fc<a>f+c<a>fc<a>ecc-dec<a>fc<a>f+c<a>fc<a>ecc-dec<a>fc<a>f+c<a>fc<a>ecc-dec<a>fc<a>f+c<a>fc<a>ecc-d<f8>e8dc8c-8cd8<b8g8a1fc>e<c>dc<cbe>cd<ebegea1r1>e<abb+baecc-8c<a8&a32r32b>cd8ec8edefc-cfadg+daeb+baec<ab8b+a8b+b>cd8ec8edefdgeaebe<a2b2>e8.d8.ere8gededcl2<abb4g4f+abl8.abb+8b>cd8<f1>d+2l16r<aaab+a>cfl8.gbg8bgb8>eel16er8fedc<bag+,v15l16>ec<a>fc<a>f+c<a>fc<a>ecc-dec<a>fc<a>f+c<a>fc<a>ecc-dec<a>fc<a>f+c<a>fc<a>ecc-dec<a>fc<a>f+c<a>fc<a>ecc-d<a8>e8<ba8g8al8bgga1a>e<b16aga16bggl1ared2<b4b4>el16ffffffffddddgab>cd4.<a8l8.ga>d8cde8<a4gf4>d<a8dal8ga2&aga>cd4.<ag.a.b>c.f.ed.e.f>c2l16&c<agfc<agf<a1>b2b2>c2f2ec<a>fc<a>f+c<a>fc<a>ecc-dec<a>fc<a>f+c<a>fc<a>ecc-dec<a>fc<a>f+c<a>fc<a>ecc-dec<a>fc<a>f+c<a>fc<a>ecc-d<a8>e8<ba8g8al8bgga1a>e<b16aga16bggl1ared2<b4b4>el16ffffffffddddgab>cd4.<a8l8.ga>d8cde8<a4gf4>d<a8dal8ga2&aga>cd4.<ag.a.b>c.f.ed.e.f>c2l16&c<agfc<agf<a1l2>bb>cf;