MML@t108v14l16<g+bn51d+g+>d+d+8<g+bn51d+g+>d+d+8n46cd+<d+a+>d+d+8n46cd+<d+a+>d+d+8<g+bn51d+g+>d+d+8<g+bn51d+g+>d+d+8n46cd+<d+a+>d+d+8n46cd+<d+a+>d+d+8<g+bn51d+g+bn51d+g+>ce<cg+>ce<cg+>eg+<cg+>eg+<cg+>eg+<c+g+>eg+n37d+d+d+8<g8d+8>d+d+d+8<g+8d+8>d+d+d+8r8d+d+n44d+eff+gg+a+n44rd+d+r<g+bn51g+r>d+d+rn44dd+<gr>d+d+r<g>d+d+<gr>d+d+r<g>dd+<erbbreg+berbbreg+bgr>d+d+r<g>cd+rd+dc<bba+gg+bn51d+g+>d+d+8<g+bn51d+g+>d+d+8n46cd+<d+a+>d+d+8n46cd+<d+a+>d+d+8<g+bn51d+g+>d+d+8<g+bn51d+g+>d+d+8n46cd+<d+a+>d+d+8n46cd+<d+a+>d+d+8<g+bn51d+g+bn51d+g+>ce<cg+>ce<cg+>eg+<cg+>eg+<cg+>eg+<c+g+>eg+n37d+d+d+8<g8d+8>d+d+d+8<g+8d+8>d+d+d+8r8d+d+n44d+eff+gg+a+n44rd+d+r<g+bn51g+r>d+d+rn44dd+<gr>d+d+r<g>d+d+<gr>d+d+r<g>dd+<erbbreg+berbbreg+bgr>d+d+r<g>cd+rd+dc<bba+g,t108r8v15>d+d+8d+l8d+<a+a+l16ra+8ra+8r<a+8rl8a+>d+r>d+4d+d+4d+<a+a+l16ra+8ra+8r<a+8rl8a+n51l32bbbbbbbbbbbbbbbbbbbbbbbbbbbbbbbb>ccccccccccccccccc+c+c+c+c+c+c+c+c+c+c+c+c+c+c+c+l16ggg8r8d+8ggg8r8d+8a+a+a+8r8g+8gc<bba+ag+g>d+2r8g+8rg+8rd+2r8a+8ra+8re2r8b8rb8ra+8.<a+8.>a+8ra+a+a+ggccl8r>d+4d+d+4d+<a+a+l16ra+8ra+8r<a+8rl8a+>d+r>d+4d+d+4d+<a+a+l16ra+8ra+8r<a+8rl8a+n51l32bbbbbbbbbbbbbbbbbbbbbbbbbbbbbbbb>ccccccccccccccccc+c+c+c+c+c+c+c+c+c+c+c+c+c+c+c+l16ggg8r8d+8ggg8r8d+8a+a+a+8r8g+8gc<bba+ag+g>d+2r8g+8rg+8rd+2r8a+8ra+8re2r8b8rb8ra+8.<a+8.>a+8ra+a+a+ggcc,t108r8v14>g+g8f+f8e8l16dd+rdd+rdd+r<c+d+c+l8d+gr>g+4gf+4fel16dd+rdd+rdd+r<c+d+c+d+8a+8>gg+rgg+rc-8gg+rgg+rc-8gg+rgg+rc8gg+rgg+rd8d+d+d+8r8g8d+d+d+8r8g+8d+d+d+8r8d8d+<d+eff+gg+a+g+2r8>dd+rdd+r<g2r8>dd+rdd+rc-2r8ef+ref+rd+8.<d+8.>d+8rccc<a+a+ggr8>g+4g8f+4f8e8dd+rdd+rdd+r<c+d+c+l8d+gr>g+4gf+4fel16dd+rdd+rdd+r<c+d+c+d+8a+8>gg+rgg+rc-8gg+rgg+rc-8gg+rgg+rc8gg+rgg+rd8d+d+d+8r8g8d+d+d+8r8g+8d+d+d+8r8d8d+<d+eff+gg+a+g+2r8>dd+rdd+r<g2r8>dd+rdd+rc-2r8ef+ref+rd+8.<d+8.>d+8rccc<a+a+gg;