MML@t240v11o1g8.l16r>grgr<g8.r>g8.r<e8.r>e8.r<e8.r>e8.r<a8.r>a8.r<a8.rb8.r>c8.r>crcr<c8.rb+8.r<g8.r>g8.r<g8.ra8.rb8.r>b8.rc-8.ra8.rc-8.rbrbrc-8.rb8.rc-8b8.rbrc-8.rb8.r<e8.r>e8.r<e8.r>e8.rc-8.rb8.rc-8.rb8.r<a8.r>a8.r<a8.r>a8.r<c8.rb+8.rc8.rb+8.rg8.r>g8.r<g8.r>g8.r<e8.r>e8.r<e8.r>e8.r<a8.r>arar<a8.r>a8.rd8.r>d8.r<d8.r>d8.r<<g8.r>grgr<g8.r>g8.r<e8.r>e8.r<e8.r>e8.r<a8.r>a8.r<a8.rb8.r>c8.r>crcr<c8.rb+8.r<g8.r>g8.r<g8.ra8.rb8.r>b8.rc-8.ra8.rc-8.rbrbrc-8.rb8.rc-8b8.rb8c-8.rb8.r<e8.r>e8.r<e8.r>e8.rc-8.rb8.rc-8.rb8.r<a8.r>a8.rc-8.rb8.r<e8.r>e8.r<e8.r>e8.r<a8.r>a8.r<a8.r>a8.r<d8.r>d8.r<d8.r>d8.r<g8.r>g8.r<g8.r>g8.r<g8>g8.rgrg8.rf+8.&f+32r32<e8>e8.rer<e8.rb8.re8>e8.rer<e8.r>e8.r<g8>g8.rgr<g8.r>g8.r<d8>d8.rdr<d8.r>d8.r<e8.r>e8.r<e8.r>e8.r<g8.r>g8.r<g8.ra8.rb8.r>b8.rc-8.rb8.r<e8.r>e8.r<e8.r>e8.r<a8.r>a8.r<a8.r>a8.r<d8.r>d8.r<d8.r>d8.r<g8.r>g8.r<g8.r>g8.r<g8.r>g8.rd8.r>d8.r,v13d2.eg2ega.b8al16g.ag.e2l4deg2ab>de8d8<bab1&b1>e2.l16d.ed.<b2a.ba.g4a2.g.ag.e2e4g4a2.b4a2g.ag.e8g8a1&a1d2.l4eg2ega.b8al16g.ag.e2l4deg2ab>de8d8<bab1&b1>e2.l16d.ed.<b2a4g4a2&a8.abagae2e4g4a2.b4a4g.ag.e4d8e8g1&g2r2e4g.r32g.r32g.ag.e8d8e.r32e.r8r32ere4l8gab4abggagegab>d2e2.l16d.ed.<b2g4a4b4.>d8<a4g.ag.e2c-4d4e2.b4a4g.ag.e4d8e8g1&g1,v11l1f+dce2d4c4c-df+dgf+eeddcdf+dce2d4c4c-df+dedc<ba>d<b&b>e&ed&dedd+ecd<b&b;