MML@t80v14o1fl16.&fr32>fl32r<e8.&er>e8.&er<a4&a16.r>a16.r<a8.&ara8.&ar>d4&d16.rd16.rd8.&drd8.&drg8.&grf8.&fre4&e16.re16.r<f4&f16.r>f16.r<e8.&er>e8.&er<a4&a16.r>a16.r<a8.&ara16.r>g16.rf4&f16.rf16.re8.&ere8.&erl16.ar32gr32er32dr32<g4.&gr32f4&fr32>fl32r<e8.&er>e8.&er<a4&a16.r>a16.r<a8.&ara8.&ar>d4&d16.rd16.rd8.&drd8.&drg8.&grf8.&fre4&e16.re16.r<f4&f16.r>f16.r<e8.&er>e8.&er<a4&a16.r>a16.r<a8.&ara16.r>g16.rf4&f16.rf16.re8.&ere8.&erl16.ar32gr32er32dr32<g4.&g,t80v11>e.g8ab+8b8al32&agagl16ede4<a8>e.l32rd4.cdc<a4ra8>c8d8.edc8d8e4.&e16.re8.&ere8g8a4b+8b8a4&agage16d16e4d8e8<a8.&ara16.r>e16.r<a8.&ara16.rg16.ra1>e4.g8a4b+8b8a4&agagl16ede4<a8>e.l32rd4.cdc<a4ra8>c8d8.edc8d8e4.&e16.re8.&ere8g8a4b+8b8a4&agage16d16e4d8e8<a8.&ara16.r>e16.r<a8.&ara16.rg16.ra1,t80v11<fa8f8g>ged<aga1gfl8g+eg+16f+16g+f4afl4g>ged<a>a8g8<agf2e>e8d8c+2<fa8f8g>ged<aga1gfl8g+eg+16f+16g+f4afl4g>ged<a>a8g8<agf2e>e8d8c+2;