MML@v9<<c-8l16bbc-8b8d+8>d+d+<d+8>d+8<e8>ee<e8>e8<d+8>d+d+<d+8>d+8<g+8>g+g+<g+8>g+8<f+8>f+f+<f+8>f+8<e8>ee<e8>e8<f+8>f+f+<f+8>f+8<e8>ee<e8>e8<f+8>f+f+<f+8>f+8<d+8>d+d+<d+8>d+8<g+8>g+g+<g+8>g+8<e8>ee<e8>ee<d+8>d+d+<d+8>d+8<g+8>g+g+<d+8f+8g+>g+8g+<g+8>g+8<e8>ee<e8>e8<d+8>d+d+<d+8>d+8<e8>ee<e8>e8<d+8>d+d+<d+8>d+8<e8>ee<e8>e8<d+8>d+d+<d+8>d+8<g+8>g+g+<d+8f+8g+8>g+g+g+8f+8<e8>ee<e8>e8<d+8>d+d+<d+8>d+8<c+8>c+c+l8n27d+n32l16g+g+<g+8>g+8<c+8>c+c+<c+8>c+c+<d+8>d+d+<d+8>d+8<g+8>g+g+<d+8f+8g+>g+8g+<g+8>g+8<c-8bbc-8b8d+8>d+d+<d+8>d+8<e8>ee<e8>e8<d+8>d+d+<d+8>d+8<g+8>g+g+<g+8>g+8<f+8>f+f+<f+8>f+8<e8>ee<e8>e8<f+8>f+f+<f+8>f+8<e8>ee<e8>e8<f+8>f+f+<f+8>f+8<d+8>d+d+l8n27d+n32l16g+g+<g+8>g+8<e8>ee<e8>ee<d+8>d+d+<d+8>d+8<g+8>g+g+<d+8f+8g+>g+8g+<g+8>g+8<e8>ee<e8>e8<d+8>d+d+<d+8>d+8<e8>ee<e8>e8<d+8>d+d+<d+8>d+8<e8>ee<e8>e8<d+8>d+d+<d+8>d+8<g+8>g+g+<d+8f+8g+8>g+g+g+8f+8<e8>ee<e8>e8<d+8>d+d+<d+8>d+8<c+8>c+c+l8n27d+n32l16g+g+<g+8>g+8<c+8>c+c+<c+8>c+c+<d+8>d+d+<d+8>d+8<g+8>g+g+<d+8f+8g+>g+8g+l8n32g+,v9c-8l16f+f+c-8f+8n46f+8f+<a+8>f+8<g+8>g+g+<g+8>g+8n42f+8f+<f+8>f+8c-8g+g+c-8g+8n46f+8f+<a+8>f+8<g+8>ee<g+8>e8n46f+8f+<a+8>f+8<g+8>ee<g+8>e8n46f+8f+c+8f+8<a+8>f+f+<a+8>f+8c-g+8g+<g+8>g+8c-8g+g+c-8g+8n46f+8f+<a+8>f+8c-8g+g+d+8f+8n44g+8g+d+8g+8e<bg+b>e8c-8f+d+n46d+f+8d+8e<bg+b>e8c-8d+<bg+b>d+8c-8e<bg+b>e8c-8f+d+n46d+f+8d+8g+d+c-d+g+8d+8g+d+c-d+g+8d+8<e8>bb<e8>b8n39a+8a+<d+8>a+8<c+8>g+g+<d+8>f+8n39g+8g+<d+8>g+8<e8>ee<e8>e8n39d+8d+<d+8>d+8<d+8>d+d+<d+8>d+8n39d+8d+<d+8>d+8c-8f+f+c-8f+8n46f+8f+<a+8>f+8<g+8>g+g+<g+8>g+8n42f+8f+<f+8>f+8c-8g+g+c-8g+8n46f+8f+<a+8>f+8<g+8>ee<g+8>e8n46f+8f+<a+8>f+8<g+8>ee<g+8>e8n46f+8f+c+8f+8<a+8>f+f+<a+8>f+8c-g+8g+<g+8>g+8c-8g+g+c-8g+8n46f+8f+<a+8>f+8c-8g+g+d+8f+8n44g+8g+d+8g+8e<bg+b>e8c-8f+d+n46d+f+8d+8e<bg+b>e8c-8d+<bg+b>d+8c-8e<bg+b>e8c-8f+d+n46d+f+8d+8g+d+c-d+g+8d+8g+d+c-d+g+8d+8<e8>bb<e8>b8n39a+8a+<d+8>a+8<c+8>g+g+<d+8>f+8n39g+8g+<d+8>g+8<e8>ee<e8>e8n39d+8d+<d+8>d+8<d+8>d+d+<d+8>d+8n39d+8d+<d+8>d+8,t122v11>d+2d+l8c+d+c-4.c+d+4c-c+d+4f+g+a+g+32a+16g+32f+d+c+4n56d+c+2r<bb32l16n61b32g+b>c+4.c-c+d+8.f+l8g+a+g+4f+g+b4.n73g+f+32l16g+f+32d+8bf+g+1c+4.d+8f+4f+32g+f+32l8d+c+4.d+<g+4g+b>c+4.d+f+4f+32g+16f+32d+g+2.f+g+>d+4d+l16c+<bf+4.f+g+b4b32n73b32g+f+d+4d+8f+8c+4.d+8c+32d+c+32<g+bg+8n61bg+1>d+2d+4l8c+d+c-4.c+d+4c-c+d+4f+g+a+g+32a+16g+32f+d+c+4n56d+c+2r<bb32l16n61b32g+b>c+4.c-c+d+8.f+l8g+a+g+4f+g+b4.n73g+f+32l16g+f+32d+8bf+g+1c+4.d+8f+4f+32g+f+32l8d+c+4.d+<g+4g+b>c+4.d+f+4f+32g+16f+32d+g+2.f+g+>d+4d+l16c+<bf+4.f+g+b4b32n73b32g+f+d+4d+8f+8c+4.d+8c+32d+c+32<g+bg+8n61bg+1;