MML@t220v11o2f8.l32&frc8d8f8.&frf8.&frg8.&grd8f8g8.&grg8.&gra8.&are8g8a8.&ara8.&ard8.&dr<a8>c8d8.&drd8.&dra+8.&a+rf8g8a+8.&a+ra+8.&a+ra8.&arf8g8a8.&ara8.&arg8.&grd8f8g8.&grg8.&gr>c8.&cr<g8a+8>c8.&crc8.&cr<f8.&frc8d8f8.&frf8.&frg8.&grd8f8g8.&grg8.&gra8.&are8g8a8.&ara8.&ard8.&dr<a8>c8d8.&drd8.&dra+8.&a+rf8g8a+8.&a+ra+8.&a+ra8.&arf8g8a8.&ara8.&ard8.&dr<a8>c8d8.&dra8.&ard8.&dr<a8>c8d8.&drd8.&dr<a+4l16>a+ra+r<a+4>a+ra+r<a4>ararl4<a>a<g>g8<g8a>a8c8dg8a8ddn22l16a+ra+r<a+4>a+ra+r<a4>arar<a4a+4>c4>crcr<c4>crcr<c4>crcr<c8.rc8.rc4>crcr<<a+4>a+ra+r<a4>ararl4<a>a<g>g8<g8a>a8c8dg8a8ddn22l16a+ra+r<a+4>a+ra+r<a4>arar<a4>a4d4>drdrl4<<a>cd8>d<a8>dd<f8.l32&frc8d8f8.&frf8.&frg8.&grd8f8g8.&grg8.&gra8.&are8g8a8.&ara8.&ard8.&dr<a8>c8d8.&drd8.&dra+8.&a+rf8g8a+8.&a+ra+8.&a+ra8.&arf8g8a8.&ara8.&arg8.&grd8f8g8.&grg8.&gr>c8.&cr<g8a+8>c8.&crc8.&cr<f8.&frc8d8f8.&frf8.&frg8.&grd8f8g8.&grg8.&gra8.&are8g8a8.&ara8.&ard8.&dr<a8>c8d8.&drd8.&dra+8.&a+rf8g8a+8.&a+ra+8.&a+ra8.&arf8g8a8.&ara8.&ard8.&dr<a8>c8d8.&dra8.&ard8.&dr<a8>c8d8.&drd8.&dr<a+4l16>a+ra+r<a+4>a+ra+r<a4>ararl4<a>a<g>g8<g8a>a8c8dg8a8ddn22l16a+ra+r<a+4>a+ra+r<a4>arar<a4a+4>c4>crcr<c4>crcr<c4>crcr<c8.rc8.rc4>crcr<<a+4>a+ra+r<a4>ararl4<a>a<g>g8<g8a>a8c8dg8a8ddn22l16a+ra+r<a+4>a+ra+r<a4>arar<a4>a4d4>drdrl4<<a>cd8>d<a8>dd<f8.l32&frc8d8f8.&frf8.&frg8.&grd8f8g8.&grg8.&gra8.&are8g8a8.&ara8.&ard8.&dr<a8>c8d8.&drd8.&dra+8.&a+rf8g8a+8.&a+ra+8.&a+ra8.&arf8g8a8.&ara8.&arg8.&grd8f8g8.&grg8.&gr>c8.&cr<g8a+8>c8.&crc8.&c,rv13>cdfg2fga2l16g.ag.f.gf.d2l4<a>cd2fdcl16<a.b+a.g4f4d2f.gf.d8f8g1l4r>cdfg2fga2l16g.ag.f.gf.d2<a4>c4d2.f4e.fe.d8c8<a4>c4d1&d1r4<g.ag.f4g4a2>c4d4g2.f.gf.d2l4dfd2.c<af8g8ab+g1&g1rgfga2>cdg2.l16f.gf.d2l4<a>cd2fdgl16f.gf.l4dcd1&d2.r2cdfg2fga2l16g.ag.f.gf.d2l4<a>cd2fdcl16<a.b+a.g4f4d2f.gf.d8f8g1l4r>cdfg2fga2l16g.ag.f.gf.d2<a4>c4d2.f4e.fe.d8c8<a4>c4d1&d1r4<g.ag.f4g4a2>c4d4g2.f.gf.d2l4dfd2.c<af8g8ab+g1&g1rgfga2>cdg2.l16f.gf.d2l4<a>cd2fdgl16f.gf.l4dcd1&d2.r2cdfg2fga2l16g.ag.f.gf.d2l4<a>cd2fdcl16<a.b+a.g4f4d2f.gf.d8f8g1,v11l2cfda+ab+a1&a>dcd<aa+b+1cfda+ab+a1&aa+>c1d1&d1<dfegfga>cd1c1&c1&c.r4n58dcel8<a+fa+>dc<g>ced<a>defedfl2n58fecd1&d1<cfda+ab+a1&a>dcd<aa+b+1cfda+ab+a1&aa+>c1d1&d1<dfegfga>cd1c1&c1&c.r4n58dcel8<a+fa+>dc<g>ced<a>defedfl2n58fecd1&d1<cfda+ab+a1&a>dcd<aa+>c1;