MML@r2v12o2c+8l16c+c+c+8c+c+c+8c+c+c+8c+c+c+8c+c+c+8c+c+c+8c+c+c+8c+c+<a8aaa8aaa8aaa8aaa8aaa8aaa8aaa8aab8bbb8bbb8bbb8bbb8bbb8bbb8bbb8bb>c+8c+c+c+8c+c+c+8c+c+c+8c+c+c+8c+c+c+8c+c+c+8c+c+c-8c+8.rc+c+c+8c+c+c+8c+c+c+8c+c+c+8c+c+c+8c+c+c+8c+c+c+8c+c+<a8aaa8aaa8aaa8aaa8aaa8aaa8aaa8aab8bbb8bbb8bbb8bbb8bbb8bbb8bbb8bb>c+8c+c+c+8c+c+c+8c+c+c+8c+c+c+8c+c+c+8c+c+c+8c+c+c-8c+4ddd8ddd8a8f+f+f+8r8ddf+8ddr8f+f+a8ddc+8c+c+c+8c+c+c+8g+8eee8r8c+c+e8g+g+b8eeg+8c+c+d8ddd8ddd8a8f+f+f+8r8ddf+8ddr8f+f+a8dd<b8bbb8bbb8bbl8b>crccccr4<a.l16raaa8aaa8aaa8b4bbb8bbb8bbl8b>c+4n37d+n39e>e<d+c+4n37d+n39e>e<d+<a.l16raaa8aaa8aaa8b4bbb8bbb8bb>c4c+8c+c+c+8c+c+c+8c+c+l8c-c+rc-c+4c-cc+4,t170r2r8v12l16eee8eee8c+8r8c+c+e8eel8ec+rg+f+g+rl16eee8eel8ec+rg+rf+rerf+r4.l16f+f+f+8f+f+l8f+d+rg+rf+rerd+rc+4c+g+ba+4.c+rc+g+ba+4bn61rl16eee8eee8c+8r8c+c+e8eel8ec+rg+f+g+rl16eee8eel8ec+rg+rf+rerf+r4.l16f+f+f+8f+f+l8f+d+rg+rf+rerd+rc+4c+g+ba+4.c+rc+g+ba+4b>c+2.&c+c-e4c+4c-4c+4.<b2b>c+4.<g+ag+ereg+b>c+2.c-l4ec+c-c+<b2l8&bbg+b>crccd+g+4.<ereed+e4n61l4bag+f+l8f+rg+g+rg+r4f+rg+g+rg+rf+ereed+e4n61l4bag+f+l8rd+ed+c+2&c+r1,r2r8v12<g+.l8g+ereg+4g+er>c+d+c+r<g+4.g+er>c+rd+rc+rd+r4.<f+4.f+f+r>erd+rc+r<f+rg+r>c+4.c+4.c+rc+4.c+4d+c+r<g+4.g+ereg+4g+er>c+d+c+r<g+4.g+er>c+rd+rc+rd+r4.<f+4.f+f+r>erd+rc+r<f+rg+r>c+4.c+4.c+rc+4.c+4d+c+r4c+4.c+rc+2c+rc+c+4<brb4.brb2brbb4>c+rc+4.c+rc+2c+rc+c+4<brb4.br>c4ccccr4<ar4a4.arl4f+f+f+f+l8d+reerer4d+reererf+ar4a4.arf+4f+4f+4f+g+4>d+ed+c+2&c+r<c-c+4c-cc+4;