MML@r2r8v9eeeeeeeeeeee8r1r1.r16eeeeeeeeeeee8r1r.r16.<a1&a&a16.r.l8eab+eab+erdgbdgbdreab+eab+erc-ebc-ebc-reab+eab+erdgbdgbdreab+eab+ereab+eab+ereab+eab+erdgbdgbdreab+eab+erc-ebc-ebc-reab+eab+erdgbdgbdreab+eab+eb+1reab+eab+erdgbdgbdreab+eab+erc-ebc-ebc-reab+eab+erdgbdgbdreab+eab+ereab+eab+ereab+eab+erdgbdgbdreab+eab+erc-ebc-ebc-reab+eab+erdgbdgbdreab+eab+eb+1rg>ce<g>ce<grg>ce<g>ce<grdgbdgbdrdgbdgbdreab+eab+ereab+eab+erc-ebc-eb<brb>ebc-ebc-reab+eab+erdgbdgbdreab+eab+erc-ebc-ebc-reab+eab+erdgbdgbdreab+eab+eb+1reab+eab+erdgbdgbdreab+eab+erc-ebc-ebc-reab+eab+erdgbdgbdreab+eab+ereab+eab+ereab+eab+erdgbdgbdreab+eab+erc-ebc-ebc-reab+eab+erdgbdgbdreab+eab+e>c1,t107rv15a8b8>ccccdc<bbbbb+ba8.l32&aaba8.&aab16a4al16ba.g.l8ed&d32e2.&e32abl4>ccccdc<bbbbb+ba8.l32&aaba8.&aab16a4al16ba.l8ge&e32g&g32a1&a4&a16.t122ab>c2.dcc-2.c<ba2&abage2.abb+2l4b>cd2cde1&e2<ab>c2dcc-2c<ba.b8age2ab>c2dc<b2a.g8bl2.arl8ab>c2.dcc-2.c<ba2&abage2.abb+2l4b>cd2cde1&e2<ab>c2dcc-2c<ba.b8age2ab>c2dc<b2a.g8bl2.arl8>cded2cde2&ed4c4dc4.c-4cd2&dc4c-4c2<a4b>c2&cr<b4ag1r2.abb+b4.a4b+b2.&bb+bb+r4bag4e2&ea4b4>c2d4.c<b2a4.gba2.&ar2.ab>c2.dcc-2.cc-c2&c<bab+e2.abb+2l4b>cd2cde1&e2<ab>c2dcc-2c<ba.b8age2ab>c2dc<b2a.g8ba2.,r2v15l1o2a&a2>g&g2<a&a4.&a32e&e32a&a2>g&g2<a&a4.&a16.a&a4&a16.r4agaeagaaagaeagaaagaeagaaagaeagaa>cc<ggaaeeagaeagaaagaeagaaagaeagaa;