MML@v9l8c<bagab>c4c<bagab>c4c<bagabb+bag+a2.b+bagab>cdefgfedc4c<bagab>cdefgfede4c<bagab>cdefgfedc4c<bagagg+b>edc<baga4b+bagab>cdefgfedc4c<bagab>cdefgfede4c<bagab>cdefgfedc4c<bagagg+b>edc<baga4r4>fed4gfededcc-cdegfed4edcc-c<baga4>egfed4gfedededcedcedcc-c<bag+a2.r4>fed4gfededcc-cdegfed4edcc-c<baga4>egfed4gfedededcedcedcc-c<bag+a2.r4b+bagab>cdefgfedc4c<bagab>cdefgfede4c<bagab>cdefgfedc4c<bagagg+b>edc<baga4,v9c8<b2b8<fg2.fg2.fl2e.e1fg1&gfg1&gfg1&gef4e1&e4fg1&gfg1&gfg1&gef4el4r>d1&de2ed2.<g+a2a1&abb+ba1&a2a2.r>d1&de2ed2.<g+a2a1&abb+ba1&l2aa.r4>b+8bb8<fg1&gfg1&gfg1&gef4e1&e4,t120;