MML@r2r8v9gl16&g.e8&e32f+8&f+32g8.bl16.ag8&g32ab>c8&c32<ag16f+ed+8&d+32gf+16e4&ef+8&f+32g4&gd4f+g8&g32ab+16bga8&a32g8&g32agf+16ge8&e32f+4dcd16ecd16ede16f+ge16f+dc+16de<b8&b32>c+8&c+32d+ef+4ed+16ed+e16f+gf+16gaf+16g8.e16d+e8&e32g8.e16dcc-16c4&cfg16fga8l32&af8&fa8.g16a16.f+8&f+d+8.e8&el16f+.gf+.g.a8&a32b8&b32b+.a.gf+.g8&g32e8.gb.a.ga8.f+e.d+.ef+8.c8&c32<b8&b32g.b.>gd.<b8&b32g.b.>e<b.g8l32&gb8.>c8&cd+16.e16f+8.g8&gf+8&f+l16.d+ef+8&f+32d+8&d+32e8.f+16gf+e16d+8.e8&e32f+d+16ed+l16er32f+g.f+r32ga.b8l32&ba8&arl16gf+.gf+.e4&e.,r2r8v9l32bb+rb8.&brg8&ga8&ab8.>d16l16.c<b8&b32>cde8&e32c<b16agf+8&f+32r32b16a16g4&ga8&a32b4&bg4ab8&b32>ce16dc-c8&c32<b8&b32b+ba16bg8l32&gabal16g.f+2&f+g.f+.ga.b.ga.f+.ef+.g.f+d.e8&e32f+.g.a4gr32f+g.f+r32ga.br32ab.b+r32ab8&b32r32gf+.g8l32&gb8&brl16b+b.ar32ge4l16.&eab16ab>c8&c32<a8&a32>dcl8d&d32<a&a32f+.g&g32l16a.bl16.ab>c8&c32d8&d32ec<b16ab8&b32g8.b16>dcc-16c8.c-16cdc16<bag16ag8&g32dgb16ag8&g32ef+g8&g32e4de8&e32f+g16a8.b8&b32a8&a32f+ga8&a32f+8&f+32g8.a16bag16f+8.g8&g32af+16gf+g16aba16b>cd8&d32c8&c32<bab2,t120;