MML@o2a+8l32&a+r16.a+16ra+ra+16ra+8&a+r16.a+16ra+ra+16rg+8&g+r16.g+16rg+rg+16rg+8&g+r16.g+16rg+rg+16rf+8&f+r16.f+16rf+rf+16rf+8&f+r16.f+16rf+rf+16rf+8r8f16.r8rf16.r8rg8a8a+16.r8ra+16ra+rg+16ra+16.r8ra+16.r8rg+16.r8rg+16rg+rf+16rg+16.r8rg+16.r8rf+16.r8rf+16rf+re16rf+16.r8rf+16.r8r>c+8r8l16c+.c+c-.l8c+rc+r<brl16b.bl16.a+b8r8bb16ba+8r8a+a+16g+a+8r8a+a+16a+>c8r8cc16n34c8r8cc16c<fr8r32fr8r32fr8r32g8a8a+r8l32ra+16ra+rg+16ra+16.r8ra+16.r8rg+16.r8rg+16rg+rf+16rg+16.r8rg+16.r8rf+16.r8rf+16rf+re16rf+16.r8rf+16.r8rf16.r8rf16rfrl16.d+fr8r32fr8l32re16ra+r>c+16re16ra+r>c+16re16.r4.rf16.r8r<<f16rfrf16rf16.r4.re16ra+r>c+16re16ra+r>c+16re16.r4.rf16.r8r<<f16rfrf16rf16.r4.rb16.r8rb16rbra+16rb16.r8rb16rbrb16ra+16.r8ra+16ra+rg+16ra+16.r8ra+16ra+ra+16r>c16.r8rc16rcrc16rc16.r8rc16rcrc16r<f16.r8rf16.r8.f16r8rg8a8,d2r8l32rd16rd16rdrd16rl16c.rcr32c4&c.r8r32cl32rcrc16rl16c+.rc+l32rc+4.rc+16rc+16rc+rc+16rc+8<arara16.rarara16.rarara16.ra16.r>d8&dl16r.d.dc.d8rddd+fgg+8.a+a+>cdd+f8f8<g+.a+>c.c+8.<f+f+g+a+>cc+8c+8c+.c<a+.>c+.r<g+.g+.g+f+.g+.rg+.g+.f+g+.f+8l32&f+f+16ff+8.rg+a+4g+8f+8f8.rd+f8.rf+g+4f+8f8e4e8.f16g8.raa+8b+8a16.r<arara16.rarara16.rarara16.ra16.r>d8&dl16r.d.dc.d8rddd+fgg+8.a+a+>cdd+f8f8<g+.a+>c.c+2.e4l8d+rc4.l32&cr16.<a4b2&br8.r>c+4l8crl4<a.&a32r16.ab2r>c+l8crl2<aa4f+l4rba+8r8f2c+el8.ef16gl32raa+8b+8a16.r<arara16.rarara16.rararl16.ar32a,t148a+2r8l32ra+16ra+16ra+ra+16rl16a+.rg+r32a+4&a+.ra+r32a+l32ra+ra+16rl16a+.rg+l32ra+4.ra+16ra+16ra+ra+16ra+16.rfrfrf16.rfrfrf16.rfrfrf16.rf16.ra+8&a+l16r.f4.ra+a+>cdd+f2r8f.r32f.f+g+.a+2&a+.a+a+.a+.g+f+.g+.rf+.f2f4d+8d+ff+2f8d+8c+8c+d+f2d+8c+8c8cde2g4f.l32r<frfrf16.rfrfrf16.rfrfrf16.rf16.ra+8&a+l16r.f4.ra+a+>cdd+f2r8f.r32f.f+g+.a+2.>c+4c8r8<a4.&a32r.f4f+2l32&f+r8.ra+4a8r8f4.&fr16.l4ff+2ra+a8r8f2dd+2rf+f8r8c+2n58c8l16cde2g4f.l32r<frfrf16.rfrfrf16.rfrfrf16.rf16.;